apps/32/subtitlecomposer.svg

<?xml version="1.0" encoding="UTF-8" standalone="no"?>
<!-- Created with Inkscape (http://www.inkscape.org/) -->

<svg
   width="32"
   height="32"
   version="1.1"
   viewBox="0 0 32 32"
   id="svg22"
   xmlns:xlink="http://www.w3.org/1999/xlink"
   xmlns="http://www.w3.org/2000/svg"
   xmlns:svg="http://www.w3.org/2000/svg">
  <defs
     id="defs12">
    <linearGradient
       id="linearGradient1005-3-3"
       x1="5.2535"
       x2="9.3823996"
       y1="15.383"
       y2="2.9421"
       gradientTransform="matrix(0.99999,0,0,0.99999,1.632,-0.61743)"
       gradientUnits="userSpaceOnUse">
      <stop
         stop-color="#fa8200"
         offset="0"
         id="stop2" />
      <stop
         stop-color="#ff9600"
         offset=".36953"
         id="stop4" />
      <stop
         stop-color="#ffb400"
         offset="1"
         id="stop6" />
    </linearGradient>
    <filter
       id="filter4014"
       x="-0.062499933"
       y="-0.057692993"
       width="1.1249999"
       height="1.115386"
       color-interpolation-filters="sRGB">
      <feGaussianBlur
         stdDeviation="1.093751"
         id="feGaussianBlur9" />
    </filter>
    <linearGradient
       xlink:href="#linearGradient3487"
       id="linearGradient3403"
       gradientUnits="userSpaceOnUse"
       x1="6.9491749"
       y1="4.5549412"
       x2="11.215498"
       y2="59.052471" />
    <linearGradient
       id="linearGradient3487">
      <stop
         style="stop-color:#32373c;stop-opacity:1"
         offset="0"
         id="stop3481" />
      <stop
         id="stop3483"
         offset="0.36804965"
         style="stop-color:#1a1a1a;stop-opacity:1" />
      <stop
         style="stop-color:#31363b;stop-opacity:1"
         offset="1"
         id="stop3485" />
    </linearGradient>
    <linearGradient
       xlink:href="#linearGradient20604"
       id="linearGradient20558"
       gradientUnits="userSpaceOnUse"
       x1="25.802212"
       y1="20.373846"
       x2="25.111048"
       y2="58.912758" />
    <linearGradient
       id="linearGradient20604">
      <stop
         id="stop20598"
         offset="0"
         style="stop-color:#3d3d3d;stop-opacity:1" />
      <stop
         style="stop-color:#000000;stop-opacity:1"
         offset="0.61772454"
         id="stop20600" />
      <stop
         id="stop20602"
         offset="1"
         style="stop-color:#3d3d3d;stop-opacity:1" />
    </linearGradient>
    <filter
       style="color-interpolation-filters:sRGB"
       id="filter20720"
       x="-0.017024755"
       y="-0.016457183"
       width="1.0340491"
       height="1.0329144">
      <feGaussianBlur
         stdDeviation="0.14745661"
         id="feGaussianBlur20722" />
    </filter>
    <linearGradient
       gradientTransform="translate(0.36067797,-0.13016949)"
       xlink:href="#linearGradient4555"
       id="linearGradient4557"
       x1="43.499737"
       y1="64.011795"
       x2="44.141731"
       y2="0.30621234"
       gradientUnits="userSpaceOnUse" />
    <linearGradient
       id="linearGradient4555">
      <stop
         style="stop-color:#141618;stop-opacity:1"
         offset="0"
         id="stop4551" />
      <stop
         id="stop4559"
         offset="0.51820582"
         style="stop-color:#686868;stop-opacity:1" />
      <stop
         style="stop-color:#31363b;stop-opacity:1"
         offset="1"
         id="stop4553" />
    </linearGradient>
    <filter
       style="color-interpolation-filters:sRGB"
       id="filter4601"
       x="-0.030244955"
       width="1.0604899"
       y="-0.030100647"
       height="1.0602013">
      <feGaussianBlur
         stdDeviation="0.014790289"
         id="feGaussianBlur4603" />
    </filter>
    <linearGradient
       xlink:href="#linearGradient4847"
       id="linearGradient4845"
       gradientUnits="userSpaceOnUse"
       gradientTransform="translate(383.57001,-499.79999)"
       x1="-331.57001"
       y1="549.742"
       x2="-383.57001"
       y2="499.79999" />
    <linearGradient
       gradientTransform="translate(383.57001,-499.79999)"
       id="linearGradient4847"
       y1="541.79999"
       x1="-430.57001"
       y2="503.79999"
       x2="-385.57001"
       gradientUnits="userSpaceOnUse">
      <stop
         stop-color="#197cf1"
         id="stop4849"
         style="stop-color:#0b5dbd;stop-opacity:1" />
      <stop
         offset="1"
         stop-color="#21c9fb"
         id="stop4851"
         style="stop-color:#0dc4fb;stop-opacity:1" />
    </linearGradient>
    <linearGradient
       xlink:href="#linearGradient5169"
       id="linearGradient5175"
       x1="18"
       y1="13"
       x2="37"
       y2="33"
       gradientUnits="userSpaceOnUse" />
    <linearGradient
       id="linearGradient5169">
      <stop
         style="stop-color:#000000;stop-opacity:1;"
         offset="0"
         id="stop5171" />
      <stop
         style="stop-color:#000000;stop-opacity:0;"
         offset="1"
         id="stop5173" />
    </linearGradient>
    <linearGradient
       gradientUnits="userSpaceOnUse"
       y2="33.5"
       x2="32.125"
       y1="-15.125"
       x1="11.875"
       id="linearGradient4408"
       xlink:href="#linearGradient4402" />
    <linearGradient
       id="linearGradient4402">
      <stop
         id="stop4404"
         offset="0"
         style="stop-color:#ffffff;stop-opacity:1;" />
      <stop
         id="stop4406"
         offset="1"
         style="stop-color:#ffffff;stop-opacity:0;" />
    </linearGradient>
  </defs>
  <g
     transform="matrix(0.60785642,0,0,0.68236189,3.4181823,-1.0395794)"
     id="g16970">
    <rect
       ry="1"
       width="40"
       x="4"
       y="4"
       rx="1"
       height="40"
       id="rect23"
       style="color:#000000;clip-rule:nonzero;display:inline;overflow:visible;visibility:visible;opacity:1;isolation:auto;mix-blend-mode:normal;color-interpolation:sRGB;color-interpolation-filters:linearRGB;solid-color:#000000;solid-opacity:1;fill:url(#linearGradient4845);fill-opacity:1;fill-rule:nonzero;stroke-width:0.5;stroke-linecap:butt;stroke-linejoin:round;stroke-miterlimit:4;stroke-dasharray:none;stroke-dashoffset:0;stroke-opacity:1;color-rendering:auto;image-rendering:auto;shape-rendering:auto;text-rendering:auto;enable-background:accumulate" />
    <path
       style="opacity:0.656;fill:#000000;fill-opacity:1;stroke-width:0.5;stroke-linejoin:round"
       d="M 5,4 C 4.4459958,4 4,4.4459933 4,5 v 7 6 16 9 c 0,0.554007 0.4459958,1 1,1 h 1 2 2 v -8 h 28 v 8 h 2 2 1 c 0.554004,0 1,-0.445993 1,-1 V 5 C 44,4.4459933 43.554004,4 43,4 H 42 V 6 H 40 V 4 h -2 v 6 2 H 10 V 10 4 H 8 V 6 H 6 V 4 Z m 1,4 h 2 v 2 H 6 Z m 34,0 h 2 v 2 H 40 Z M 6,12 h 2 v 2 H 6 Z m 34,0 h 2 v 2 H 40 Z M 6,16 h 2 v 2 H 6 Z m 4,-2 h 28 v 2 18 H 10 V 32 16 Z m 30,2 h 2 v 2 H 40 Z M 6,20 h 2 v 2 H 6 Z m 34,0 h 2 v 2 H 40 Z M 6,24 h 2 v 2 H 6 Z m 34,0 h 2 v 2 H 40 Z M 6,28 h 2 v 2 H 6 Z m 34,0 h 2 v 2 H 40 Z M 6,32 h 2 v 2 H 6 Z m 34,0 h 2 v 2 H 40 Z M 6,36 h 2 v 2 H 6 Z m 34,0 h 2 v 2 H 40 Z M 6,40 h 2 v 2 H 6 Z m 34,0 h 2 v 2 h -2 z"
       id="path4229" />
    <path
       id="rect4185"
       d="m 3.99999,42.00001 v 1 c 0,0.55401 0.446,1 1,1 h 38 c 0.554,0 1,-0.44599 1,-1 v -1 c 0,0.55401 -0.446,1 -1,1 h -38 c -0.554,0 -1,-0.44599 -1,-1 z"
       style="opacity:0.3;fill:#000000;fill-opacity:1" />
    <path
       style="opacity:0.3;fill:#ffffff;fill-opacity:1"
       d="m 3.99999,6.00001 v -1 c 0,-0.55401 0.446,-1 1,-1 h 38 c 0.554,0 1,0.44599 1,1 v 1 c 0,-0.55401 -0.446,-1 -1,-1 h -38 c -0.554,0 -1,0.44599 -1,1 z"
       id="path4200" />
    <path
       style="opacity:0.242;fill:url(#linearGradient5175);fill-opacity:1;fill-rule:evenodd;stroke:none;stroke-width:1px;stroke-linecap:butt;stroke-linejoin:miter;stroke-opacity:1"
       d="M 28,14 16,26 v 4 l 14,14 h 13 c 0.554004,0 1,-0.445993 1,-1 V 30 Z"
       id="path5164" />
    <path
       d="M 28,14 16.008,25.992 h -0.004 v 4.01 h 4.01 v -0.004 l 11.992,-11.992 -0.002,-0.002 0.002,-0.002 -4,-4 -0.002,0.002 z m -1.998,3.412 2.59,2.59 -7.588,7.588 V 26 h -2 V 24.41 Z M 18.004,25.41 V 27 h 2 v 1.59 L 19.594,29 h -1.59 l -1,-1 v -1.59 z m 5,3.59 -1,1 h 10 v -1 z"
       id="path53"
       style="color:#000000;clip-rule:nonzero;display:inline;overflow:visible;visibility:visible;opacity:0.872;isolation:auto;mix-blend-mode:normal;color-interpolation:sRGB;color-interpolation-filters:linearRGB;solid-color:#000000;solid-opacity:1;fill:#ffffff;fill-opacity:1;fill-rule:evenodd;stroke-width:1;stroke-linecap:butt;stroke-linejoin:miter;stroke-miterlimit:4;stroke-dasharray:none;stroke-dashoffset:0;stroke-opacity:1;color-rendering:auto;image-rendering:auto;shape-rendering:auto;text-rendering:auto;enable-background:accumulate" />
    <g
       id="layer3">
      <g
         id="layer1"
         style="display:inline"
         transform="translate(-1e-5)">
        <rect
           ry="1"
           width="40"
           x="4"
           y="4"
           rx="1"
           height="40"
           id="rect4400"
           style="opacity:0.436;fill:url(#linearGradient4408);fill-opacity:1" />
      </g>
    </g>
    <rect
       style="color:#000000;clip-rule:nonzero;display:inline;overflow:visible;visibility:visible;opacity:0.872;isolation:auto;mix-blend-mode:normal;color-interpolation:sRGB;color-interpolation-filters:linearRGB;solid-color:#000000;solid-opacity:1;fill:#ffffff;fill-opacity:1;fill-rule:evenodd;stroke:none;stroke-width:1;stroke-linecap:butt;stroke-linejoin:miter;stroke-miterlimit:4;stroke-dasharray:none;stroke-dashoffset:0;stroke-opacity:1;marker:none;color-rendering:auto;image-rendering:auto;shape-rendering:auto;text-rendering:auto;enable-background:accumulate"
       id="rect5158"
       width="12"
       height="1"
       x="18"
       y="31"
       rx="0"
       ry="1" />
  </g>
  <path
     style="display:inline;mix-blend-mode:normal;fill:url(#linearGradient3403);fill-opacity:1;stroke:url(#linearGradient20558);stroke-width:1.16242;stroke-linecap:butt;stroke-linejoin:round;stroke-miterlimit:4;stroke-dasharray:none;stroke-opacity:1;filter:url(#filter20720)"
     d="M 4.7043071,3.9814882 4.6913695,60.80196 H 58.59546 l 1.022155,-2.866369 c 0,0 -23.87537,0.766388 -32.844441,-4.140386 C 16.257548,48.042344 11.401114,4.0978197 11.401114,4.0978197 Z"
     id="path1686"
     transform="matrix(0.5,0,0,0.5,0.06630362,0.01654936)" />
  <rect
     style="display:inline;fill:none;fill-opacity:1;stroke:url(#linearGradient4557);stroke-width:3.71366;stroke-linejoin:round;stroke-miterlimit:7.8;stroke-dasharray:none;stroke-opacity:0.995146;filter:url(#filter4601)"
     id="rect4539"
     width="62.566689"
     height="62.866646"
     x="1.0323594"
     y="0.59551275"
     ry="6.2447233"
     rx="5.8029528"
     transform="matrix(0.46839137,0,0,0.46743669,0.90638486,1.0268972)" />
</svg>

<svg width="32" height="32" version="1.1" viewBox="0 0 32 32" xmlns="http://www.w3.org/2000/svg" xmlns:xlink="http://www.w3.org/1999/xlink">
<defs>
<linearGradient id="linearGradient3403" x1="6.9492" x2="11.215" y1="4.5549" y2="59.052" gradientUnits="userSpaceOnUse">
<stop style="stop-color:#32373c" offset="0"/>
<stop style="stop-color:#1a1a1a" offset=".36805"/>
<stop style="stop-color:#31363b" offset="1"/>
</linearGradient>
<linearGradient id="linearGradient20558" x1="25.802" x2="25.111" y1="20.374" y2="58.913" gradientUnits="userSpaceOnUse">
<stop style="stop-color:#3d3d3d" offset="0"/>
<stop offset=".61772"/>
<stop style="stop-color:#3d3d3d" offset="1"/>
</linearGradient>
<linearGradient id="linearGradient4557" x1="43.5" x2="44.142" y1="64.012" y2=".30621" gradientTransform="translate(.36068 -.13017)" gradientUnits="userSpaceOnUse">
<stop style="stop-color:#141618" offset="0"/>
<stop style="stop-color:#686868" offset=".51821"/>
<stop style="stop-color:#31363b" offset="1"/>
</linearGradient>
<linearGradient id="linearGradient4845" x1="-331.57" x2="-383.57" y1="549.74" y2="499.8" gradientTransform="translate(383.57 -499.8)" gradientUnits="userSpaceOnUse">
<stop stop-color="#197cf1" style="stop-color:#0b5dbd" offset="0"/>
<stop stop-color="#21c9fb" style="stop-color:#0dc4fb" offset="1"/>
</linearGradient>
<linearGradient id="linearGradient5175" x1="18" x2="37" y1="13" y2="33" gradientUnits="userSpaceOnUse">
<stop offset="0"/>
<stop style="stop-opacity:0" offset="1"/>
</linearGradient>
<linearGradient id="linearGradient4408" x1="11.875" x2="32.125" y1="-15.125" y2="33.5" gradientUnits="userSpaceOnUse">
<stop style="stop-color:#fff" offset="0"/>
<stop style="stop-color:#fff;stop-opacity:0" offset="1"/>
</linearGradient>
</defs>
<g transform="matrix(.60786 0 0 .68236 3.4182 -1.0396)">
<rect x="4" y="4" width="40" height="40" rx="1" ry="1" style="color-rendering:auto;color:#000000;fill:url(#linearGradient4845);image-rendering:auto;isolation:auto;mix-blend-mode:normal;shape-rendering:auto;solid-color:#000000;stroke-linejoin:round;stroke-width:.5"/>
<path d="m5 4c-0.554 0-1 0.44599-1 1v38c0 0.55401 0.446 1 1 1h5v-8h28v8h5c0.554 0 1-0.44599 1-1v-38c0-0.55401-0.446-1-1-1h-1v2h-2v-2h-2v8h-28v-8h-2v2h-2v-2zm1 4h2v2h-2zm34 0h2v2h-2zm-34 4h2v2h-2zm34 0h2v2h-2zm-34 4h2v2h-2zm4-2h28v20h-28v-18zm30 2h2v2h-2zm-34 4h2v2h-2zm34 0h2v2h-2zm-34 4h2v2h-2zm34 0h2v2h-2zm-34 4h2v2h-2zm34 0h2v2h-2zm-34 4h2v2h-2zm34 0h2v2h-2zm-34 4h2v2h-2zm34 0h2v2h-2zm-34 4h2v2h-2zm34 0h2v2h-2z" style="opacity:.656;stroke-linejoin:round;stroke-width:.5"/>
<path d="m4 42v1c0 0.55401 0.446 1 1 1h38c0.554 0 1-0.44599 1-1v-1c0 0.55401-0.446 1-1 1h-38c-0.554 0-1-0.44599-1-1z" style="opacity:.3"/>
<path d="m4 6v-1c0-0.55401 0.446-1 1-1h38c0.554 0 1 0.44599 1 1v1c0-0.55401-0.446-1-1-1h-38c-0.554 0-1 0.44599-1 1z" style="fill:#fff;opacity:.3"/>
<path d="m28 14-12 12v4l14 14h13c0.554 0 1-0.44599 1-1v-13z" style="fill-rule:evenodd;fill:url(#linearGradient5175);opacity:.242"/>
<path d="m28 14-11.992 11.992h-4e-3v4.01h4.01v-4e-3l11.992-11.992-2e-3 -2e-3 2e-3 -2e-3 -4-4-2e-3 2e-3zm-1.998 3.412 2.59 2.59-7.588 7.588v-1.59h-2v-1.59zm-7.998 7.998v1.59h2v1.59l-0.41 0.41h-1.59l-1-1v-1.59zm5 3.59-1 1h10v-1z" style="color-rendering:auto;color:#000000;fill-rule:evenodd;fill:#fff;image-rendering:auto;isolation:auto;mix-blend-mode:normal;opacity:.872;shape-rendering:auto;solid-color:#000000"/>
<g transform="translate(-1e-5)">
<rect x="4" y="4" width="40" height="40" rx="1" ry="1" style="fill:url(#linearGradient4408);opacity:.436"/>
</g>
<rect x="18" y="31" width="12" height="1" rx="0" ry="1" style="color-rendering:auto;color:#000000;fill-rule:evenodd;fill:#fff;image-rendering:auto;isolation:auto;mix-blend-mode:normal;opacity:.872;shape-rendering:auto;solid-color:#000000"/>
</g>
<path transform="matrix(.5 0 0 .5 .066304 .016549)" d="m4.7043 3.9815-0.012938 56.82h53.904l1.0222-2.8664s-23.875 0.76639-32.844-4.1404c-10.516-5.7529-15.372-49.697-15.372-49.697z" style="fill:url(#linearGradient3403);mix-blend-mode:normal;stroke-linejoin:round;stroke-width:1.1624;stroke:url(#linearGradient20558)"/>
<rect transform="matrix(.46839 0 0 .46744 .90638 1.0269)" x="1.0324" y=".59551" width="62.567" height="62.867" rx="5.803" ry="6.2447" style="fill:none;stroke-linejoin:round;stroke-miterlimit:7.8;stroke-opacity:.99515;stroke-width:3.7137;stroke:url(#linearGradient4557)"/>
</svg>
